src/asset/img/icon/button/item.svg

<svg height="18" width="18" xmlns:xlink="http://www.w3.org/1999/xlink" xmlns="http://www.w3.org/2000/svg"><g transform="translate(-1.45 1.65)"><use height="50" transform="matrix(.36 0 0 .36 1.45 -1.65)" width="50" xlink:href="#a"/><use height="17.95" transform="translate(10.8 -1.65)" width="8.65" xlink:href="#b"/><use height="20.15" width="20.95" xlink:href="#c" transform="rotate(-48.804 7.071 2.047)"/><use height="20.15" width="20.95" xlink:href="#c" transform="rotate(-7.22 35.579 15.93) scale(.59053)"/><use height="20.15" width="20.95" xlink:href="#c" transform="rotate(-21.574 30.088 -3.676) scale(.56307)"/></g><defs><path d="M25 0q0 10.3-7.3 17.65Q10.35 25 0 25t-17.65-7.35Q-25 10.3-25 0q0-10.35 7.35-17.7Q-10.35-25.05 0-25q10.35-.05 17.7 7.3Q25-10.35 25 0" fill="#fff" fill-rule="evenodd" transform="translate(25 25)" id="h"/><path d="M0 0q3.6.15 6.15 2.75 2.5 2.6 2.5 6.25t-2.5 6.25Q3.6 17.85 0 17.95V0" fill="url(#d)" fill-rule="evenodd" id="i"/><path d="m11.3 9.35.2.55 4.3-1.8-3.8 3.55-.9-.75-2.6 2.75-2.85-2.75-.9.75L.95 8.1 5.2 9.9l.3-.75L3.2 5.8 0 .05l6.5 6.5 1.8-4.7 1.85 4.55L16.6 0q-3.15 6.45-5.3 9.35m-4.05 7.1-3-1.75v-1l2.95.8.05 1.95m2.75 0 .1-1.95 2.9-.8v1l-3 1.75" fill="url(#e)" fill-rule="evenodd" id="j"/><path d="m1.25-6 .65-.1.4.5.3 2.7 2.25 1.4q.35.2.3.6v.2l-.35.35L2.35.75l-.7 2.7-.4.4q-.4.1-.65-.2l-1.8-2-2.7.2q-.4 0-.6-.3L-4.55 1l1.35-2.45-1-2.5v-.45l.1-.2q.25-.3.65-.2l2.6.55L1.25-6" fill="url(#f)" transform="translate(10.5 10.1)" style="fill:url(#g)" id="c" fill-rule="evenodd"/><linearGradient gradientTransform="matrix(.0053 0 0 .011 4.3 8.95)" gradientUnits="userSpaceOnUse" id="d" spreadMethod="pad" x1="-819.2" x2="819.2"><stop offset="0" stop-color="#ffb907"/><stop offset="1" stop-color="#f96" stop-opacity="0"/></linearGradient><linearGradient gradientTransform="matrix(.0049 0 0 .0083 8.3 6.8)" gradientUnits="userSpaceOnUse" id="e" spreadMethod="pad" x1="-819.2" x2="819.2"><stop offset="0" stop-color="#ffb907"/><stop offset="1" stop-color="#ffb907" stop-opacity="0"/></linearGradient><linearGradient gradientTransform="matrix(-.0011 -.0043 .0024 -.0006 25.65 -7.4)" gradientUnits="userSpaceOnUse" id="g" spreadMethod="pad" x1="-819.2" x2="819.2"><stop offset="0" stop-color="#e77607"/><stop offset="1" stop-color="#e77607"/></linearGradient><use height="50" width="50" xlink:href="#h" id="a" x="0" y="0"/><use height="17.95" width="8.65" xlink:href="#i" id="b" x="0" y="0"/><use height="16.45" width="16.6" xlink:href="#j" id="f" x="0" y="0"/></defs></svg>

<?xml version="1.0" encoding="UTF-8" standalone="no"?>
<svg
   height="18.000122"
   width="18"
   version="1.1"
   id="svg1135"
   sodipodi:docname="item.svg"
   inkscape:version="1.1.1 (3bf5ae0d25, 2021-09-20, custom)"
   xmlns:inkscape="http://www.inkscape.org/namespaces/inkscape"
   xmlns:sodipodi="http://sodipodi.sourceforge.net/DTD/sodipodi-0.dtd"
   xmlns:xlink="http://www.w3.org/1999/xlink"
   xmlns="http://www.w3.org/2000/svg"
   xmlns:svg="http://www.w3.org/2000/svg">
  <sodipodi:namedview
     id="namedview1137"
     pagecolor="#505050"
     bordercolor="#eeeeee"
     borderopacity="1"
     inkscape:pageshadow="0"
     inkscape:pageopacity="0"
     inkscape:pagecheckerboard="0"
     showgrid="false"
     inkscape:current-layer="g1107" />
  <g
     transform="translate(-1.45,1.6501216)"
     id="g1107">
    <use
       height="50"
       transform="matrix(0.36,0,0,0.36,1.45,-1.65)"
       width="50"
       xlink:href="#a"
       id="use1099"
       x="0"
       y="0" />
    <use
       height="17.950001"
       transform="translate(10.8,-1.65)"
       width="8.6499996"
       xlink:href="#b"
       id="use1101"
       x="0"
       y="0" />
    <use
       height="20.15"
       width="20.950001"
       xlink:href="#a-1"
       id="use12835"
       transform="rotate(-48.803758,7.071464,2.0474731)"
       x="0"
       y="0" />
    <use
       height="20.15"
       width="20.950001"
       xlink:href="#a-1"
       id="use12835-1"
       transform="matrix(0.58585218,-0.07422457,0.07422457,0.58585218,-1.7209122,4.5982074)"
       x="0"
       y="0" />
    <use
       height="20.15"
       width="20.950001"
       xlink:href="#a-1"
       id="use12835-5"
       transform="matrix(0.52362476,-0.20704286,0.20704286,0.52362476,3.4594505,10.806043)"
       x="0"
       y="0" />
  </g>
  <defs
     id="defs1133">
    <use
       height="50"
       width="50"
       xlink:href="#e"
       id="a"
       x="0"
       y="0" />
    <use
       height="17.950001"
       width="8.6499996"
       xlink:href="#f"
       id="b"
       x="0"
       y="0" />
    <use
       height="16.450001"
       width="16.6"
       xlink:href="#g"
       id="c"
       x="0"
       y="0" />
    <use
       height="16.450001"
       width="16.6"
       xlink:href="#h"
       id="d"
       x="0"
       y="0" />
    <path
       d="M 25,0 Q 25,10.3 17.7,17.65 10.35,25 0,25 -10.35,25 -17.65,17.65 -25,10.3 -25,0 q 0,-10.35 7.35,-17.7 7.3,-7.35 17.65,-7.3 10.35,-0.05 17.7,7.3 Q 25,-10.35 25,0"
       fill="#ffffff"
       fill-rule="evenodd"
       transform="translate(25,25)"
       id="e" />
    <path
       d="m 0,0 q 3.6,0.15 6.15,2.75 2.5,2.6 2.5,6.25 0,3.65 -2.5,6.25 Q 3.6,17.85 0,17.95 V 0"
       fill="url(#i)"
       fill-rule="evenodd"
       id="f" />
    <path
       d="M 11.3,9.35 11.5,9.9 15.8,8.1 12,11.65 11.1,10.9 8.5,13.65 5.65,10.9 4.75,11.65 0.95,8.1 5.2,9.9 5.5,9.15 3.2,5.8 0,0.05 6.5,6.55 8.3,1.85 10.15,6.4 16.6,0 q -3.15,6.45 -5.3,9.35 m -4.05,7.1 -3,-1.75 v -1 l 2.95,0.8 0.05,1.95 m 2.75,0 0.1,-1.95 2.9,-0.8 v 1 l -3,1.75"
       fill="url(#j)"
       fill-rule="evenodd"
       id="h" />
    <linearGradient
       gradientTransform="matrix(0.0053,0,0,0.011,4.3,8.95)"
       gradientUnits="userSpaceOnUse"
       id="i"
       spreadMethod="pad"
       x1="-819.20001"
       x2="819.20001">
      <stop
         offset="0"
         stop-color="#ffb907"
         id="stop1116" />
      <stop
         offset="1"
         stop-color="#f96"
         stop-opacity="0"
         id="stop1118" />
    </linearGradient>
    <linearGradient
       gradientTransform="matrix(0.0049,0,0,0.0083,8.3,6.8)"
       gradientUnits="userSpaceOnUse"
       id="j"
       spreadMethod="pad"
       x1="-819.20001"
       x2="819.20001">
      <stop
         offset="0"
         stop-color="#ffb907"
         id="stop1121" />
      <stop
         offset="1"
         stop-color="#ffb907"
         stop-opacity="0"
         id="stop1123" />
    </linearGradient>
    <g
       id="g"
       fill="#ff3300"
       fill-rule="evenodd">
      <path
         d="M 0,0.05 8.25,8.25 16.6,0 Q 11,11.55 8.4,11.55 6.75,11.55 3.2,5.8 L 0,0.05"
         id="path1126" />
      <path
         d="M 12,11.65 10.45,10.35 15.8,8.1 12,11.65 m -7.25,0 -3.8,-3.55 5.35,2.25 -1.55,1.3"
         id="path1128" />
      <path
         d="M 8.3,1.85 11.65,10.3 8.5,13.65 5.05,10.3 8.3,1.85 M 10.1,14.5 13,13.7 v 1 l -3,1.75 0.1,-1.95 m -2.9,0 0.05,1.95 -3,-1.75 v -1 l 2.95,0.8"
         id="path1130" />
    </g>
    <g
       id="shape0"
       transform="translate(3.5,3.5)">
      <path
         d="m 49.4,8.9 q 0.35,0.7 0.15,1.5 -4.65,15.25 -10.3,23.2 -4.9,6.9 -13.15,13.9 -0.55,0.45 -1.3,0.45 -0.75,0 -1.3,-0.45 Q 15.25,40.5 10.4,33.6 4.7,25.65 0.1,10.4 -0.15,9.6 0.25,8.9 0.6,8.15 1.35,7.9 l 22.8,-7.8 q 0.65,-0.2 1.3,0 l 22.8,7.8 q 0.75,0.25 1.15,1"
         fill="#000000"
         fill-rule="evenodd"
         stroke="none"
         id="path2214" />
      <path
         d="M 49.4,8.9 Q 49,8.15 48.25,7.9 L 25.45,0.1 q -0.65,-0.2 -1.3,0 L 1.35,7.9 q -0.75,0.25 -1.1,1 -0.4,0.7 -0.15,1.5 4.6,15.25 10.3,23.2 4.85,6.9 13.1,13.9 0.55,0.45 1.3,0.45 0.75,0 1.3,-0.45 8.25,-7 13.15,-13.9 5.65,-7.95 10.3,-23.2 0.2,-0.8 -0.15,-1.5 z"
         fill="none"
         stroke="#5e4100"
         stroke-linecap="round"
         stroke-linejoin="round"
         stroke-width="7"
         id="path2216" />
      <path
         d="M 2,9.8 24.8,2 47.6,9.8 q -4.5,14.9 -10,22.65 -4.75,6.7 -12.8,13.5 Q 16.75,39.15 12,32.45 6.5,24.7 2,9.8"
         fill="#000000"
         fill-rule="evenodd"
         stroke="none"
         id="path2218" />
      <path
         d="M 2,9.8 24.8,2"
         fill="none"
         stroke="#ffffff"
         stroke-linecap="round"
         stroke-linejoin="round"
         stroke-width="4"
         id="path2220" />
      <path
         d="m 47.6,9.8 q -4.5,14.9 -10,22.65 -4.75,6.7 -12.8,13.5"
         fill="none"
         stroke="#cca300"
         stroke-linecap="round"
         stroke-linejoin="round"
         stroke-width="4"
         id="path2222" />
      <path
         d="M 24.8,2 47.6,9.8 M 24.8,45.95 Q 16.75,39.15 12,32.45 6.5,24.7 2,9.8 Z"
         fill="none"
         stroke="#e6b700"
         stroke-linecap="round"
         stroke-linejoin="round"
         stroke-width="4"
         id="path2224" />
      <path
         d="M 24.8,2 V 45.95 Q 16.75,39.15 12,32.45 6.5,24.7 2,9.8 L 24.8,2"
         fill="url(#gradient0)"
         fill-rule="evenodd"
         stroke="none"
         id="path2226" />
      <path
         d="m 24.8,2 22.8,7.8 q -4.5,14.9 -10,22.65 -4.75,6.7 -12.8,13.5 V 2"
         fill="url(#gradient1)"
         fill-rule="evenodd"
         stroke="none"
         id="path2228" />
    </g>
    <g
       id="sprite0"
       transform="translate(-2.3,1.55)">
      <use
         height="26.85"
         transform="translate(2.3,-1.55)"
         width="26.200001"
         xlink:href="#shape1"
         id="use2241"
         x="0"
         y="0" />
    </g>
    <g
       id="g13102">
      <path
         d="M 10,16.95 9.5,16.45 10.65,17.6 10,16.95 M 22.3,4.6 Q 20.4,2.7 17.65,2.7 14.9,2.7 13,4.6 q -1.95,1.95 -1.95,4.7 0,2.75 1.95,4.65 1.9,1.95 4.65,1.95 2.75,0 4.65,-1.95 1.95,-1.9 1.95,-4.65 0,-2.75 -1.95,-4.7 m 3,-2.95 q 3.2,3.15 3.2,7.65 0,4.5 -3.2,7.65 -3.15,3.2 -7.65,3.2 -2.4,0 -4.4,-0.9 l -4.15,4.1 -0.65,0.9 Q 7.4,25.3 5.95,25.3 4.45,25.3 3.4,24.25 2.3,23.2 2.3,21.7 2.3,20.2 3.4,19.15 H 3.45 L 3.4,19.1 8.1,14.4 Q 6.8,12.1 6.8,9.3 6.8,4.8 10,1.65 q 3.15,-3.2 7.65,-3.2 4.45,0 7.65,3.2"
         fill="url(#gradient2)"
         fill-rule="evenodd"
         stroke="none"
         id="path2244" />
    </g>
    <g
       transform="matrix(1.0, 0.0, 0.0, 1.0, 21.85, 27.25)"
       id="shape0-8">
      <path
         d="M16.45 -15.7 L16.4 -15.45 13.0 -8.4 4.6 -10.7 Q-1.25 -10.7 -4.95 -7.25 -9.0 -4.15 -8.9 0.85 -8.95 5.15 -5.2 8.6 -1.2 11.7 4.25 11.7 L13.35 9.4 16.1 16.7 Q12.95 18.05 7.95 18.25 L7.95 21.85 4.25 21.85 4.25 18.35 0.2 18.1 0.2 21.85 -3.6 21.85 -3.6 17.55 Q-16.75 14.55 -16.75 0.85 -16.75 -5.1 -13.3 -9.35 L-10.35 -12.2 Q-7.35 -14.55 -3.6 -15.85 L-3.6 -21.85 0.2 -21.85 0.2 -16.8 4.25 -17.2 4.25 -21.85 7.95 -21.85 7.95 -17.2 Q13.05 -16.95 16.45 -15.7 M7.95 8.2 L4.25 8.2 4.25 -8.2 7.95 -8.2 7.95 8.2 M-3.6 5.5 L-3.6 -4.85 0.2 -8.2 0.2 8.2 -3.6 5.5"
         fill="url(#gradient0)"
         fill-rule="evenodd"
         stroke="none"
         id="path11978"
         style="fill:url(#gradient0-9)" />
    </g>
    <linearGradient
       gradientTransform="matrix(0.0135, 0.0132, -0.007, 0.0071, 6.35, 0.2)"
       gradientUnits="userSpaceOnUse"
       id="gradient0-9"
       spreadMethod="pad"
       x1="-819.2"
       x2="819.2">
      <stop
         offset="0.0"
         stop-color="#e77607"
         id="stop11985" />
      <stop
         offset="1.0"
         stop-color="#e77607"
         id="stop11987" />
    </linearGradient>
    <linearGradient
       gradientTransform="matrix(.0064 0 0 .0123 5.2 -.05)"
       gradientUnits="userSpaceOnUse"
       id="b-8"
       spreadMethod="pad"
       x1="-819.2"
       x2="819.2">
      <stop
         offset="0"
         stop-color="#ffa2d0"
         id="stop12837" />
      <stop
         offset="1"
         stop-color="#fff"
         id="stop12839" />
    </linearGradient>
    <linearGradient
       gradientTransform="matrix(-.0014 -.0051 .0024 -.0006 25.4 -9.9)"
       gradientUnits="userSpaceOnUse"
       id="c-0"
       spreadMethod="pad"
       x1="-819.2"
       x2="819.2">
      <stop
         offset="0"
         stop-color="#fe78a0"
         id="stop12842" />
      <stop
         offset="1"
         stop-color="#ffd5e1"
         id="stop12844" />
    </linearGradient>
    <linearGradient
       gradientTransform="matrix(-.0011 -.0043 .0024 -.0006 25.65 -7.4)"
       gradientUnits="userSpaceOnUse"
       id="d-2"
       spreadMethod="pad"
       x1="-819.2"
       x2="819.2">
      <stop
         offset="0"
         stop-color="#e77607"
         id="stop12847" />
      <stop
         offset="1"
         stop-color="#e77607"
         id="stop12849" />
    </linearGradient>
    <g
       id="a-1"
       fill-rule="evenodd">
      <path
         d="m1.25-6 .65-.1.4.5.3 2.7 2.25 1.4q.35.2.3.6v.2l-.35.35L2.35.75l-.7 2.7-.4.4q-.4.1-.65-.2l-1.8-2-2.7.2q-.4 0-.6-.3L-4.55 1l1.35-2.45-1-2.5v-.45l.1-.2q.25-.3.65-.2l2.6.55L1.25-6"
         fill="url(#d)"
         transform="translate(10.5 10.1)"
         id="path12858"
         style="fill:url(#d-2)" />
    </g>
    <linearGradient
       gradientTransform="matrix(-.0011 -.0043 .0024 -.0006 25.65 -7.4)"
       gradientUnits="userSpaceOnUse"
       id="d-2-0"
       spreadMethod="pad"
       x1="-819.2"
       x2="819.2">
      <stop
         offset="0"
         stop-color="#e77607"
         id="stop12847-5" />
      <stop
         offset="1"
         stop-color="#e77607"
         id="stop12849-1" />
    </linearGradient>
    <linearGradient
       gradientTransform="matrix(-.0011 -.0043 .0024 -.0006 25.65 -7.4)"
       gradientUnits="userSpaceOnUse"
       id="linearGradient12975"
       spreadMethod="pad"
       x1="-819.2"
       x2="819.2">
      <stop
         offset="0"
         stop-color="#e77607"
         id="stop12971" />
      <stop
         offset="1"
         stop-color="#e77607"
         id="stop12973" />
    </linearGradient>
    <linearGradient
       gradientTransform="matrix(-.0011 -.0043 .0024 -.0006 25.65 -7.4)"
       gradientUnits="userSpaceOnUse"
       id="d-2-08"
       spreadMethod="pad"
       x1="-819.2"
       x2="819.2">
      <stop
         offset="0"
         stop-color="#e77607"
         id="stop12847-50" />
      <stop
         offset="1"
         stop-color="#e77607"
         id="stop12849-6" />
    </linearGradient>
    <linearGradient
       gradientTransform="matrix(-.0011 -.0043 .0024 -.0006 25.65 -7.4)"
       gradientUnits="userSpaceOnUse"
       id="linearGradient12975-4"
       spreadMethod="pad"
       x1="-819.2"
       x2="819.2">
      <stop
         offset="0"
         stop-color="#e77607"
         id="stop12971-6" />
      <stop
         offset="1"
         stop-color="#e77607"
         id="stop12973-2" />
    </linearGradient>
  </defs>
</svg>
